packages/icons/brands/TwitterXRound.dark.svg

<svg xmlns="http://www.w3.org/2000/svg" fill="none" viewBox="0 0 24 24">
    <rect width="24" height="24" x="-0.00195312" fill="#F5F5F5" rx="12"/>
    <path fill="#030303" d="M13.4093 10.845L18.983 4.5H17.6624L12.8205 10.0081L8.95617 4.5H4.49805L10.343 12.83L4.49805 19.4831H5.81867L10.9287 13.665L15.0105 19.4831H19.4687L13.4093 10.845ZM11.5999 12.9031L11.0068 12.0731L6.29492 5.475H8.32367L12.1274 10.8019L12.718 11.6319L17.6618 18.5556H15.633L11.5999 12.9031Z"/>
</svg>

<svg xmlns="http://www.w3.org/2000/svg" fill="none" viewBox="0 0 24 24">
    <rect width="24" height="24" x="-.002" fill="#F5F5F5" rx="12"/>
    <path fill="#030303" d="M13.41 10.845 18.982 4.5h-1.32l-4.843 5.508L8.956 4.5H4.498l5.845 8.33-5.845 6.653h1.32l5.11-5.818 4.082 5.818h4.459l-6.06-8.638Zm-1.81 2.058-.593-.83-4.712-6.598h2.029l3.803 5.327.591.83 4.944 6.924h-2.029L11.6 12.903Z"/>
</svg>
